X: 2
T: The Muckin' O' Geordie's Byre
R: jig
M: 6/8
L: 1/8
K: Dmaj
ABA AFA | d2 e f2 a | g2 e f2 d | e2 d Bcd |ABA AFA | d2 e f2 g | afd efe | d3 :|g>ag gag | f>af faf | e2 e efg | fed BdB |ABA AFA | d2 e f2 g | afd efe | d3 :|


Tune 1110	Setting 1110

